share/icons/Flat-Remix-Blue-Dark/mimetypes/scalable/x-office-calendar.svg

<svg xmlns="http://www.w3.org/2000/svg" xmlns:xlink="http://www.w3.org/1999/xlink" width="36pt" height="36pt" version="1.1" viewBox="0 0 36 36"> <defs> <clipPath id="clip1"> <path d="M 20 2 L 31 2 L 31 13 L 20 13 Z M 20 2"/> </clipPath> <clipPath id="clip2"> <path d="M 20.515625 2.625 L 30.328125 12.4375 L 22.023438 12.4375 C 21.292969 12.4375 20.515625 11.660156 20.515625 10.929688 Z M 20.515625 2.625"/> </clipPath> <image id="image6" width="36" height="36" xlink:href="data:image/png;base64,iVBORw0KGgoAAAANSUhEUgAAACQAAAAkCAYAAADhAJiYAAAABmJLR0QA/wD/AP+gvaeTAAAAmklEQVRYhe3T0QqCQBBG4aOtYEoUvf9Lildltl00C4tkbBeTIP+BAUEYP1YW1Pcqh53B9kbgaVPcwQF0tAmGSrMZ6AKcDQXw+AUVHEAtcAUaewYYgYmC3+cBCkAPnDJQMcoDVNnebgEqQnmAclTz4d0I3P4JStc9AjXvk4qLWQV53LLeEOl05gw4A3dgcPiuUkoppZRSSqk99gLWvSJpuDnlsAAAAABJRU5ErkJggg=="/> </defs> <g> <path style="fill:rgb(83.137%,9.803%,9.803%)" d="M 7.347656 3.152344 C 6.675781 3.152344 6.042969 3.785156 6.042969 4.457031 L 6.042969 31.847656 C 6.042969 32.480469 6.714844 33.152344 7.347656 33.152344 L 28.21875 33.152344 C 28.851562 33.152344 29.523438 32.480469 29.523438 31.847656 L 29.523438 11.632812 L 21.042969 3.152344 Z M 7.347656 3.152344"/> <g clip-path="url(#clip1)"> <g clip-path="url(#clip2)"> <use xlink:href="#image6"/> </g> </g> <path style="fill:rgb(88.235%,36.862%,36.862%)" d="M 21.042969 3.152344 L 29.523438 11.632812 L 22.347656 11.632812 C 21.714844 11.632812 21.042969 10.960938 21.042969 10.328125 Z M 21.042969 3.152344"/> <path style="fill:rgb(100.000%,100.000%,100.000%)" d="M 12.417969 14.089844 C 12.140625 14.121094 12.128906 14.253906 12.128906 14.742188 L 12.128906 16.699219 L 23.871094 16.699219 L 23.871094 14.742188 C 23.871094 14.089844 23.871094 14.089844 23.21875 14.089844 L 12.78125 14.089844 C 12.621094 14.089844 12.507812 14.082031 12.414062 14.089844 Z M 12.128906 17.351562 L 12.128906 25.175781 C 12.128906 25.824219 12.128906 25.824219 12.78125 25.824219 L 23.21875 25.824219 C 23.871094 25.824219 23.871094 25.824219 23.871094 25.175781 L 23.871094 17.351562 Z M 20.121094 18.65625 C 20.546875 18.65625 20.921875 18.761719 21.242188 18.960938 C 21.5625 19.160156 21.804688 19.4375 21.972656 19.816406 C 22.144531 20.191406 22.238281 20.640625 22.238281 21.160156 C 22.238281 22.289062 22.003906 23.132812 21.527344 23.6875 C 21.046875 24.242188 20.316406 24.523438 19.34375 24.523438 C 19.003906 24.523438 18.746094 24.496094 18.570312 24.460938 L 18.570312 23.503906 C 18.792969 23.558594 19.019531 23.585938 19.261719 23.585938 C 19.671875 23.585938 20 23.519531 20.261719 23.402344 C 20.527344 23.28125 20.734375 23.105469 20.875 22.851562 C 21.011719 22.597656 21.097656 22.238281 21.117188 21.792969 L 21.058594 21.792969 C 20.902344 22.039062 20.726562 22.203125 20.527344 22.300781 C 20.328125 22.402344 20.09375 22.464844 19.792969 22.464844 C 19.289062 22.464844 18.878906 22.292969 18.589844 21.976562 C 18.300781 21.65625 18.164062 21.21875 18.164062 20.652344 C 18.164062 20.039062 18.34375 19.539062 18.691406 19.183594 C 19.046875 18.828125 19.511719 18.65625 20.121094 18.65625 Z M 15.617188 18.714844 L 16.632812 18.714844 L 16.632812 24.441406 L 15.410156 24.441406 L 15.410156 20.589844 L 15.433594 20 C 15.230469 20.199219 15.082031 20.324219 15.003906 20.386719 L 14.351562 20.917969 L 13.761719 20.183594 Z M 19.976562 19.632812 C 19.808594 19.664062 19.65625 19.75 19.550781 19.878906 C 19.40625 20.050781 19.34375 20.308594 19.34375 20.632812 C 19.34375 20.90625 19.398438 21.121094 19.527344 21.28125 C 19.65625 21.445312 19.855469 21.527344 20.121094 21.527344 C 20.367188 21.527344 20.574219 21.441406 20.75 21.28125 C 20.929688 21.121094 21.015625 20.941406 21.015625 20.734375 C 21.015625 20.421875 20.9375 20.152344 20.773438 19.9375 C 20.609375 19.722656 20.394531 19.632812 20.140625 19.632812 C 20.078125 19.632812 20.035156 19.621094 19.976562 19.632812 Z M 19.976562 19.632812"/> </g> </svg>

<svg width="36pt" height="36pt" version="1.1" viewBox="0 0 36 36" xmlns="http://www.w3.org/2000/svg"><defs><filter id="a" x="-.192" y="-.192" width="1.384" height="1.384" color-interpolation-filters="sRGB"><feGaussianBlur stdDeviation="0.67843748"/></filter></defs><path d="m7.3477 3.9022c-0.67188 0-1.3047 0.63281-1.3047 1.3047v27.391c0 0.63281 0.67188 1.3047 1.3047 1.3047h20.871c0.63281 0 1.3047-0.67188 1.3047-1.3047v-20.215l-8.4805-8.4805z" opacity=".3"/><path d="m7.3477 3.1523c-0.67188 0-1.3047 0.63281-1.3047 1.3047v27.391c0 0.63281 0.67188 1.3047 1.3047 1.3047h20.871c0.63281 0 1.3047-0.67188 1.3047-1.3047v-20.215l-8.4805-8.4805z" fill="#d31818"/><path d="m20.668 3.5272 8.4805 8.4805h-7.1758c-0.63281 0-1.3047-0.67187-1.3047-1.3047z" filter="url(#a)" opacity=".2"/><path d="m21.043 3.1523 8.4805 8.4805h-7.1758c-0.63281 0-1.3047-0.67187-1.3047-1.3047z" fill="#e05d5d"/><path d="m12.418 14.09c-0.27734 0.03125-0.28906 0.16406-0.28906 0.65234v1.957h11.742v-1.957c0-0.65234 0-0.65234-0.65234-0.65234h-10.438c-0.16016 0-0.27344-0.007813-0.36719 0zm-0.28906 3.2617v7.8242c0 0.64844 0 0.64844 0.65234 0.64844h10.438c0.65234 0 0.65234 0 0.65234-0.64844v-7.8242zm7.9922 1.3047c0.42578 0 0.80078 0.10547 1.1211 0.30469 0.32031 0.19922 0.5625 0.47656 0.73047 0.85547 0.17188 0.375 0.26562 0.82422 0.26562 1.3438 0 1.1289-0.23438 1.9727-0.71094 2.5273-0.48047 0.55469-1.2109 0.83594-2.1836 0.83594-0.33984 0-0.59766-0.027344-0.77344-0.0625v-0.95703c0.22266 0.054688 0.44922 0.082032 0.69141 0.082032 0.41016 0 0.73828-0.066407 1-0.18359 0.26562-0.12109 0.47266-0.29688 0.61328-0.55078 0.13672-0.25391 0.22266-0.61328 0.24219-1.0586h-0.058594c-0.15625 0.24609-0.33203 0.41016-0.53125 0.50781-0.19922 0.10156-0.43359 0.16406-0.73438 0.16406-0.50391 0-0.91406-0.17188-1.2031-0.48828-0.28906-0.32031-0.42578-0.75781-0.42578-1.3242 0-0.61328 0.17969-1.1133 0.52734-1.4688 0.35547-0.35547 0.82031-0.52734 1.4297-0.52734zm-4.5039 0.058594h1.0156v5.7266h-1.2227v-3.8516l0.023438-0.58984c-0.20312 0.19922-0.35156 0.32422-0.42969 0.38672l-0.65234 0.53125-0.58984-0.73438zm4.3594 0.91797c-0.16797 0.03125-0.32031 0.11719-0.42578 0.24609-0.14453 0.17188-0.20703 0.42969-0.20703 0.75391 0 0.27344 0.054688 0.48828 0.18359 0.64844 0.12891 0.16406 0.32812 0.24609 0.59375 0.24609 0.24609 0 0.45312-0.085938 0.62891-0.24609 0.17969-0.16016 0.26562-0.33984 0.26562-0.54688 0-0.3125-0.078125-0.58203-0.24219-0.79688-0.16406-0.21484-0.37891-0.30469-0.63281-0.30469-0.0625 0-0.10547-0.011718-0.16406 0z" fill="#fff"/></svg>
